X: 13067
T: Finnish Scottische
R: barndance
M: 4/4
K: Gmajor
|:B2AG D2GB|dage d3e-|1 ecfg fedB|c2AG FGAc:|2 ecfg fdAG|FGAF G2F2||
|:EGBE GBc^d|egfe B3A/B/|cBAc BAG/A/B|1 AGFE ^D2EF:|2 AGF^D E4||

